X: 7
T:Jackie Coleman's Reel
M:C|
L:1/8
R:Reel
K:D
dB[|:AF~F2 EFDE|F2AF BFAF|E2BE dEBE|ABde fedB|!
AF~F2 EFDE|F2AF BFAF|E2BE dEBE|1ABde fddB:|2ABde fdde|!
|:fddc dfag|fd~d2 dfaf|eA~A2 eAfA|eA~A2 efge|!
fddc dfag|fd~d2 dfaf|g2gf gbag|1faeg fdde:|2faeg fddB|]!
